X: 88
T:High Part of the Road
R:Jig
S:Matt Cranitch Book
Z:Added by alf.warnock@rogers.com
M:6/8
L:1/8
K:G
A|:~B3~c3|ded cAG|~F3DED|DGG FGA|
~B3~c3|dcA B/^c/de|fed cAF|[1 AFG3:|[2 AGF GBd|
|:~g3def|g2a bag|~f3dfg|afd cAG|
~g3def|g2a bag|fed cAF|[1 AGF GBd|[2 AGFG2|]

